X: 2160
T: HAGGS CASTLE
C: Carl Volti
Q: "Reel."
R: Reel.
%R: reel
B: James Kerr "Merry Melodies" v.2 p.19 #160
Z: 2016 John Chambers <jc:trillian.mit.edu>
M: C
L: 1/8
K: D
ug |\
fdBd A2(FB) | A2(FB) ABcd |\
eAfA eA A/A/A | (e^d)ef gea ::\
ug |\
fa a/a/a (af)de | fa a/a/a (af)df |\
eg g/g/g (ge)cd | efge cba :|

%%sep 1 1 500
%%sep 1 1 500

